X: 1103
T: The Rivals
R:double jig
N:"collected by F.O'Neill"
B:O'Neill's 1103
Z:Transcribed by henrik.norbeck@mailbox.swipnet.se
M:6/8
L:1/8
K:A
(a/f/)|ecA A>BA|{d}cBA Aaf|ecA A>BA|dBG GBd|
{d}cBA A>BA|ecA Ace|{=g}fed edc|dBG A2:|
c/B/|A>aa aea|{d}cBA A>BA|=G>(gf) {a}gfg|dBG GcB|
A>aa aea|fga ef=g|{g}fed edc|dBG A2(d/B/):|
A>aa e2a|{d}cBA AcB|A>aa ef=g|dBG GcB|
Aaa efg|fga ef=g|{g}fed edc|dBG A2:|


